X:1
T:The Pauper's Drive
M:3/4
L:1/4
K:C
 E/2E/2| A B c| d c B| A B G| A3-| A z A/2A/2| A B c| d c B| A B G|\
 A3-| A z e| e f e| d e d| c d c| B3-| B2 B| A B c| d c B| A B G| A3-|\
 A2 e| e f e| d- e- d| c d c| B3-| B2 E| A B c| d c B| A B G| A3-|\
 A2||
